**kern	**kern	**kern	**kern
*MM60	*MM60	*MM60	*MM60
*k[f#]	*k[f#]	*k[f#]	*k[f#]
*M3/4	*M3/4	*M3/4	*M3/4
*tb32	*tb32	*tb32	*tb32
=1	=1	=1	=1
2.r	2.r	2.r	2.e
=2	=2	=2	=2
2.r	2.r	2.r	2.f#
=3	=3	=3	=3
2.r	2.r	2.r	2g
.	.	.	4g#
=4	=4	=4	=4
2.r	2.r	2.r	2a
.	.	.	4a#
=5	=5	=5	=5
2.r	2.r	2.r	4b
.	.	.	4a
.	.	.	4g
=6	=6	=6	=6
2.r	2.r	2.r	4a
.	.	.	4f#
.	.	.	4b
=7	=7	=7	=7
2.r	2.r	2.r	4g
.	.	.	8a
.	.	.	8g
.	.	.	8f#
.	.	.	8e
=8	=8	=8	=8
2.r	2.r	2.B	4d
.	.	.	4f#
.	.	.	[4b
=9	=9	=9	=9
2.r	2.r	2.c#	4b]
.	.	.	4e
.	.	.	[4a
=10	=10	=10	=10
2.r	2.r	2d	4a]
.	.	.	4f#
.	.	4d#	[4b
=11	=11	=11	=11
2.r	2.r	2e	4b]
.	.	.	4g#
.	.	4e#	4cc#
=12	=12	=12	=12
2.r	2.r	4f#	2a#
.	.	4e	.
.	.	4d	[4b
=13	=13	=13	=13
2.r	2.r	4e	2b]
.	.	4c#	.
.	.	4f#	4a#
=14	=14	=14	=14
2.r	2.r	4d#	2a
.	.	4B	.
.	.	[4e	4g
=15	=15	=15	=15
2.r	2.r	2e]	4f#
.	.	.	8g
.	.	.	8a
.	.	4d#	8b
.	.	.	8a
=16	=16	=16	=16
2.r	2.E	2e	4g
.	.	.	4b
.	.	4g	[4ee
=17	=17	=17	=17
2.r	2.F#	[2.a	4ee]
.	.	.	4dd
.	.	.	4cc
=18	=18	=18	=18
2.r	2G	4a]	2.b
.	.	8g	.
.	.	8f#	.
.	4G#	8e	.
.	.	8d	.
=19	=19	=19	=19
2.r	2A	4c#	2.cc#
.	.	8a	.
.	.	8g	.
.	4A#	8f#	.
.	.	8e	.
=20	=20	=20	=20
2.BB	4B	4d	4dd
.	4c#	4e	4cc#
.	4d	4f#	[4b
=21	=21	=21	=21
2.C#	4c#	4e	4b]
.	8e	4r	8cc#
.	8d	.	8b
.	4c#	4e	4a#
=22	=22	=22	=22
2D	4B	2.f#	2b
.	8d	.	.
.	8c	.	.
4D#	8B	.	4b
.	8A	.	.
=23	=23	=23	=23
2E	4G#	2.g#	2b
.	8e	.	.
.	8d	.	.
4E#	8c#	.	4cc#
.	8B	.	.
=24	=24	=24	=24
4F#	2A#	2a#	2cc#
4E	.	.	.
4D	[4B	4f#	4dd
=25	=25	=25	=25
4E	2B]	2g	2.cc#
4C#	.	.	.
4F#	4A#	4f#	.
=26	=26	=26	=26
4BB	[2B	2f#	4.dd
4C#	.	.	.
.	.	.	8cc#
4D	8B]	4f#	[4b
.	8A	.	.
=27	=27	=27	=27
4E	4G	4e	8b]
.	.	.	8cc#
4F#	2F#	2e	4.a#
4FF#	.	.	.
.	.	.	8b
=28	=28	=28	=28
2BB	2.F#	2.d	4b
.	.	.	4f#
4r	.	.	[4dd
=29	=29	=29	=29
2.r	2.G	2.B	4dd]
.	.	.	4b
.	.	.	[4ee
=30	=30	=30	=30
2.r	2A	2.c#	4ee]
.	.	.	4cc#
.	4A#	.	[4ff#
=31	=31	=31	=31
2.r	2.B	2d	4ff#]
.	.	.	4b
.	.	4d#	[4a
=32	=32	=32	=32
2.E	8r	2e	4a]
.	8c	.	.
.	8B	.	8g
.	8A	.	8f#
.	4B	[4e	4g
=33	=33	=33	=33
2.F#	2.A	4e]	2.a
.	.	4d	.
.	.	4c	.
=34	=34	=34	=34
2G	2.B	4r	4r
.	.	[2e	8gg
.	.	.	8ff#
4G#	.	.	8ee
.	.	.	8dd
=35	=35	=35	=35
2A	2.c#	4e]	4cc#
.	.	[2f#	8aa
.	.	.	8gg
4A#	.	.	8ff#
.	.	.	8ee
=36	=36	=36	=36
4B	2B	2f#]	2dd#
4A	.	.	.
4G	4B	4g	[4ee
=37	=37	=37	=37
2.F#	4c	4a	2ee]
.	4B	4g	.
.	4A	4f#	4dd#
=38	=38	=38	=38
2.E	2B	4g	4ee
.	.	4g#	4dd
.	[4A	4e	4cc
=39	=39	=39	=39
2D#	4A]	2.f#	2.b
.	8D#	.	.
.	8E	.	.
4D	8F#	.	.
.	8G	.	.
=40	=40	=40	=40
2C#	4A	2.e	2.a
.	8C#	.	.
.	8D	.	.
4C	8E	.	.
.	8F#	.	.
=41	=41	=41	=41
[2.BB	4G	2e	2g
.	4A	.	.
.	4B	4d	4f#
=42	=42	=42	=42
4BB]	4G	4c#	4e
2AA#	[2F#	2c#	4.e
.	.	.	16d#
.	.	.	16e
=43	=43	=43	=43
2AA	2F#]	2B	4.d#
.	.	.	16c#
.	.	.	16d#
4GG	[4E	4B	[4e
=44	=44	=44	=44
4C	8E]	4A	4e]
.	8F#	.	.
2BB	8G	[2B	4.e
.	8E	.	.
.	4F#	.	.
.	.	.	8d#
=45	=45	=45	=45
[2.E	4G	4B]	2.e
.	8E	8G	.
.	8F#	8A	.
.	8G	8B	.
.	8A	8c#	.
=46	=46	=46	=46
4E]	4B	4d#	2d#
4r	8D#	8F#	.
.	8E	8G#	.
4r	8F#	8A	4d
.	8G#	8B	.
=47	=47	=47	=47
2.r	8AA	4A	2c#
.	8BB	.	.
.	8C#	8E	.
.	8D	8F#	.
.	8E	8G	4c
.	8F#	8A	.
=48	=48	=48	=48
2.r	8G	4B	2.b
.	8F#	.	.
.	8E	8c#	.
.	8D	8d	.
.	8C#	8e	.
.	8BB	8f#	.
=49	=49	=49	=49
2.r	8C#	8e	2.a
.	8BB	8d	.
.	8AA	8c#	.
.	8BB	8d#	.
.	8C#	8e	.
.	8D#	8f#	.
=50	=50	=50	=50
2.r	4E	2g#	4g#
.	4EE	.	8g#
.	.	.	8a
.	4E	4g	8b
.	.	.	8cc#
=51	=51	=51	=51
2.r	8BB	2f#	4dd
.	8C#	.	.
.	4D	.	8f#
.	.	.	8g
.	4DD	4f	8a
.	.	.	8b
=52	=52	=52	=52
2.r	8AA	4e	2cc
.	8BB	.	.
.	8C	4a	.
.	8D	.	.
.	8E	4g#	4b
.	8D	.	.
=53	=53	=53	=53
2.r	8C	8e	[2a
.	8AA	8c	.
.	8D	8f	.
.	8BB	8d	.
.	8E	4B	8a]
.	8EE	.	8g#
=54	=54	=54	=54
2.AA	4E	8c	8a
.	.	8d	8b
.	8A	4e	2cc
.	8G	.	.
.	8F	[4a	.
.	8E	.	.
=55	=55	=55	=55
2.BB	4D	8a]	2.dd
.	.	8cc	.
.	[2G	8b	.
.	.	8a	.
.	.	8g	.
.	.	8f	.
=56	=56	=56	=56
2C	4G]	2.e	8ee
.	.	.	8dd
.	[2A	.	8cc
.	.	.	8b
4C#	.	.	8a
.	.	.	8g
=57	=57	=57	=57
2D	4A]	4d	4f#
.	[2B	2f#	8dd
.	.	.	8cc
4D#	.	.	8b
.	.	.	8a
=58	=58	=58	=58
2.E	8B]	4e	2g
.	8B	.	.
.	8e	4r	.
.	8d	.	.
.	8c	[4e	4g#
.	8B	.	.
=59	=59	=59	=59
2.F#	2A	8e]	2a
.	.	8e	.
.	.	8a	.
.	.	8g	.
.	4c#	8f#	4a#
.	.	8e	.
=60	=60	=60	=60
2G	4B	8d	2.b
.	.	16e	.
.	.	16f#	.
.	4.e	8g	.
.	.	8a	.
4G#	.	[4b	.
.	8d	.	.
=61	=61	=61	=61
2A	4c#	8b]	2.cc#
.	.	16a	.
.	.	16g#	.
.	4.f#	8a	.
.	.	8b	.
4A#	.	[4cc#	.
.	8e	.	.
=62	=62	=62	=62
[2.B	4d	8cc#]	2.dd
.	.	16b	.
.	.	16a#	.
.	8g	8b	.
.	8f#	8a	.
.	8e	8g	.
.	8d	8f#	.
=63	=63	=63	=63
4B]	8e	4g	[2.cc#
.	8d	.	.
2A#	8c#	[2f#	.
.	16d	.	.
.	16e	.	.
.	8d	.	.
.	8c#	.	.
=64	=64	=64	=64
2B	2d	2f]	8cc#]
.	.	.	8f#
.	.	.	8b
.	.	.	8a
4D#	4B	4r	8g
.	.	.	8f#
=65	=65	=65	=65
2.E	8r	4r	2.ee 2.g
.	8B	.	.
.	8c	8r	.
.	8B	8dd	.
.	8A	8cc	.
.	8G	8b	.
=66	=66	=66	=66
2.F#	4.A	8a	[2.dd
.	.	8g	.
.	.	2f#	.
.	8e	.	.
.	8d	.	.
.	8c	.	.
=67	=67	=67	=67
2G	2.B	4r	8dd]
.	.	.	8dd
.	.	[2e	8gg
.	.	.	8ff#
4G#	.	.	8ee
.	.	.	8dd
=68	=68	=68	=68
2A	2.c#	8e]	4cc#
.	.	8e	.
.	.	[2f#	8aa
.	.	.	8gg
4A#	.	.	8ff#
.	.	.	8ee
=69	=69	=69	=69
4B	2B	2f#]	2dd#
4A	.	.	.
4G	4B	4g	[4ee
=70	=70	=70	=70
2.F#	4c	4a	2ee]
.	4B	4g	.
.	4A	4f#	4dd#
=71	=71	=71	=71
2E	2B	2g	2ee
[4B	[4B	[4e	[4g
=72	=72	=72	=72
4B]	2B]	4e]	4g]
2BB	.	2d#	2f#
.	4A	.	.
=73	=73	=72	=72
2.EE	2.E 2.G	2.B	2.e
==	==	==	==
*-	*-	*-	*-
